!!!!SEGMENT: pl-wtm--r-1226--008_lodwigowski-edward-stefan--nu-mazurze-bij-nozkami.krn
!!!cenid: 18xx:1924
!!!COM: Łodwigowski, Edward Stefan
!!!COM-rismID: pe30111147
!!!CDT: 1815/08/14-1895/11/12
!!!CNT: Polish
!!!OTL: Nu mazurze bij nóżkami
!!!PDT:
!!!AGN:
!!!SMS-siglum: PL-Wtm
!!!SMS-shelfmark: R 1226
!!!SMS-shelfwork: 008 W
!!!SMS-variant:
!!!SMS-altvar:
!!!NIFC-rismSourceID: 1001083987
!!!NIFC-islandoraID:
!!!URL-pdf-islandora:
!!!URL-scan:
!!!ONB-nifc: UWAGA: No. 56
!!!OMD: Allegro.
!!!AIN: 1 empty
!!!key:
**kern	**fing	**kern	**fing	**dynam
*part1	*part1	*part1	*part1	*part1
*staff2	*staff2	*staff1	*staff1	*
*Iempty	*	*Iforte	*	*
*	*	*I"Fortepian	*	*
*>[A,A,B,B]	*>[A,A,B,B]	*>[A,A,B,B]	*>[A,A,B,B]	*>[A,A,B,B]
*>A	*>A	*>A	*>A	*>A
*clefF4	*	*clefG2	*	*
*k[f#c#]	*	*k[f#c#]	*	*
*D:	*	*D:	*	*
*M3/8	*	*M3/8	*	*
*all\right	*	*all\right	*	*
=1	=1	=1	=1	=1
*^	*	*	*	*
*	*	*below	*	*	*
!	!	!	!LO:TX:Bi:t=No 56.	!	!
!	!	!	!LO:TX:i:t=Nu mazurze bij nóżkami. P.L.P.	!	!LO:DY:rj
4.D/	8D\L	5	16dd\LL	1	f
.	.	.	32r	.	.
.	.	.	(32dd\JJk	.	.
.	8A 8F#\	.	8ff#\L	.	.
.	8AJ 8F#\	.	8aa\J)	.	.
=2	=2	=2	=2	=2	=2
4.D/	8D\L	.	16bb|\LL	.	.
.	.	.	32r	.	.
.	.	.	32bb\JJk	3	.
.	8B 8G\	.	8gg\L	.	.
.	8BJ 8G\	.	16ddd\L	5	.
.	.	.	16bb\JJ	3	.
=3	=3	=3	=3	=3	=3
4.D/	8D\L	.	16aa'\LL	2	.
.	.	.	32r	.	.
.	.	.	(32aa\JJk	4	.
.	8A 8F#\	.	8ff#\L	.	.
.	8AJ 8F#\	.	8aa\J	.	.
=4	=4	=4	=4	=4	=4
4.AA/	8AA\L	.	16gg\LL)	.	.
.	.	.	32r	.	.
.	.	.	32gg\JJk	3	.
.	8G 8C#\	.	8ee\L	1	.
.	8GJ 8E\	.	16gg\L	5	.
.	.	.	16cc#\JJ	2	.
!!LO:LB:g=original
=5:|!|:	=5:|!|:	=5:|!|:	=5:|!|:	=5:|!|:	=5:|!|:
*>B	*>B	*>B	*>B	*>B	*>B
4.D/	8D\L	4	16.dd\LL	1	.
.	.	.	32ff#\JJk	.	.
.	8A 8F#\	.	(8aa\L	.	.
.	8AJ 8F#\	.	16ff#\L	.	.
.	.	.	16dd\JJ)	.	.
=6	=6	=6	=6	=6	=6
4.AA/	8AA\L	5	16.cc#\LL	2	.
.	.	.	32ee\JJk	3	.
.	8G 8C#\	.	(8gg\L	.	.
.	8GJ 8C#\	.	16ff#\L	.	.
.	.	.	16ee\JJ)	.	.
=7	=7	=7	=7	=7	=7
4.D/	8D\L	4	16.dd\LL	1	.
.	.	.	32ff#\JJk	.	.
.	8A 8F#\	.	(8aa\L	.	.
.	8AJ 8F#\	.	16ff#\L	.	.
.	.	.	16dd\JJ)	.	.
=8	=8	=8	=8	=8	=8
*	*	*^	*	*	*
4AA/	8AA\L	.	.	(16cc#\LL	2	.
.	.	.	.	16ee\	3	.
.	8G 8C#'>\	.	.	16gg\	5	.
.	.	.	.	16ff#\JJ)	.	.
8ryy	8F#J 8D'>\	2	4	8dd|\	.	.
*	*	*v	*v	*	*	*
*v	*v	*	*	*	*
=:|!	=:|!	=:|!	=:|!	=:|!
*-	*-	*-	*-	*-
!!!system-decoration: {p1}
!!!RDF**kern: > = above
!!!RDF**kern: < = below
!!!RDF**kern: | = vertical stroke
!!!ENC: Andrzej Kubiczek
!!!END: 2021-05-01
!!!ENC: Andrzej Gręziak
!!!END: 2021-04-17
